X:1
T:THE BLACKBIRD
M:C
L:1/8
Q:80
C:Dr. Chas. Bannatyne
S:Reel
K:HP
e[ | \
{ag}a2f/2a3/2e3/2f/2{gef}e3/2c/2 | \
{ag}a2f/2a3/2{ef}e3/2c/2{G}c3/2e/2 | \
{ag}a2f/2a3/2e3/2f/2{gef}e3/2c/2 |
{g}A/2{d}A3/2{gef}e3/2A/2{gcd}c3/2B/2{G}B3/2e/2 | \
{ag}a2f/2a3/2e3/2f/2{gef}e3/2c/2 | \
{g}A3/2a/2f/2a3/2{ef}e3/2c/2{G}c3/2e/2 |
a3/2g/2{a}f/2a3/2e3/2f/2{ag}a2 | \
c/2{d}A3/2{gef}e3/2A/2{gcd}c3/2B/2{G}B|]
{d}c |
{g}A/2{d}A3/2{gcd}c3/2B/2{g}A/2{d}A3/2{gef}e3/2c/2 | \
{g}A/2{d}A3/2{g}c/2{d}A3/2{gef}e3/2c/2{G}c3/2B/2 | \
{g}A/2{d}A3/2{gcd}c3/2B/2{g}A/2{d}A3/2{gef}e3/2c/2 |
{g}A/2{d}A3/2{gef}e3/2A/2{gcd}c3/2B/2{G}B3/2{d}c/2 | \
{g}A/2{d}A3/2{gcd}c3/2B/2{g}A/2{d}A3/2{gef}e3/2c/2 | \
{g}A3/2a/2f/2a3/2{ef}e3/2c/2{G}c3/2e/2 |
a3/2g/2{a}f/2a3/2e3/2f/2{ag}a2 | \
c/2{d}A3/2{gef}e3/2A/2{gcd}c3/2B/2{G}B|]
